hi/receipt-tax-outline.svg

<svg viewBox="0 0 24 24" fill="none" xmlns="http://www.w3.org/2000/svg" height="1em" width="1em">
  <path d="M9 14L15 8M9.50003 8.5H9.51003M14.5 13.5H14.51M19 21V5C19 3.89543 18.1046 3 17 3H7C5.89543 3 5 3.89543 5 5V21L8.5 19L12 21L15.5 19L19 21ZM10 8.5C10 8.77614 9.77614 9 9.5 9C9.22386 9 9 8.77614 9 8.5C9 8.22386 9.22386 8 9.5 8C9.77614 8 10 8.22386 10 8.5ZM15 13.5C15 13.7761 14.7761 14 14.5 14C14.2239 14 14 13.7761 14 13.5C14 13.2239 14.2239 13 14.5 13C14.7761 13 15 13.2239 15 13.5Z" stroke="#374151" stroke-width="2" stroke-linecap="round" stroke-linejoin="round"/>
</svg>

<svg viewBox="0 0 24 24" fill="none" xmlns="http://www.w3.org/2000/svg" height="1em" width="1em">
  <path d="m9 14 6-6m-5.5.5h.01m4.99 5h.01M19 21V5a2 2 0 0 0-2-2H7a2 2 0 0 0-2 2v16l3.5-2 3.5 2 3.5-2 3.5 2ZM10 8.5a.5.5 0 1 1-1 0 .5.5 0 0 1 1 0Zm5 5a.5.5 0 1 1-1 0 .5.5 0 0 1 1 0Z" stroke="#374151" stroke-width="2" stroke-linecap="round" stroke-linejoin="round"/>
</svg>
